report_00007_2020-12-11T15:55:29.892Z/render-blocking-resources/comparison/line/1_vs_2.svg

<svg width="640" height="500" xmlns="http://www.w3.org/2000/svg" xmlns:xlink="http://www.w3.org/1999/xlink"><path fill="#fff" d="M0 0h640v500H0z"/><defs><path id="d" stroke-width=".222" stroke="currentColor" d="M-1-1h2v2h-2z"/><path id="b" stroke-width=".222" stroke="currentColor" d="M0-1.33l-1.33 2h2.66z"/><path id="f" stroke-width=".222" stroke="currentColor" d="M0 1.33L1.265.411.782-1.067l-1.564-.009-.483 1.487z"/><use xlink:href="#b" id="c" stroke="currentColor" transform="rotate(180)"/><use xlink:href="#d" id="e" stroke="currentColor" transform="rotate(45)"/><circle id="a" stroke-width=".222" stroke="currentColor" cx="0" cy="0" r="1"/></defs><g fill="none" color="#000" stroke="currentColor"><path stroke="#000" d="M62.2 380.4h9m543.8 0h-9"/><text transform="translate(53.9 384.3)" stroke="none" fill="#000" font-family="Arial" font-size="12" text-anchor="end"><tspan>800</tspan></text></g><g fill="none" color="#000" stroke="currentColor"><path stroke="#000" d="M62.2 296.1h9m543.8 0h-9"/><text transform="translate(53.9 300)" stroke="none" fill="#000" font-family="Arial" font-size="12" text-anchor="end"><tspan>900</tspan></text></g><g fill="none" color="#000" stroke="currentColor"><path stroke="#000" d="M62.2 211.8h9m543.8 0h-9"/><text transform="translate(53.9 215.7)" stroke="none" fill="#000" font-family="Arial" font-size="12" text-anchor="end"><tspan>1000</tspan></text></g><g fill="none" color="#000" stroke="currentColor"><path stroke="#000" d="M62.2 127.5h9m543.8 0h-9"/><text transform="translate(53.9 131.4)" stroke="none" fill="#000" font-family="Arial" font-size="12" text-anchor="end"><tspan>1100</tspan></text></g><g fill="none" color="#000" stroke="currentColor"><path stroke="#000" d="M62.2 43.2h9m543.8 0h-9"/><text transform="translate(53.9 47.1)" stroke="none" fill="#000" font-family="Arial" font-size="12" text-anchor="end"><tspan>1200</tspan></text></g><g fill="none" color="#000" stroke="currentColor"><path stroke="#000" d="M62.2 446v-9m0-418.9v9"/><text transform="translate(62.2 467.9)" stroke="none" fill="#000" font-family="Arial" font-size="12" text-anchor="middle"><tspan>0</tspan></text></g><g fill="none" color="#000" stroke="currentColor"><path stroke="#000" d="M118 446v-9m0-418.9v9"/><text transform="translate(118 467.9)" stroke="none" fill="#000" font-family="Arial" font-size="12" text-anchor="middle"><tspan>10</tspan></text></g><g fill="none" color="#000" stroke="currentColor"><path stroke="#000" d="M173.9 446v-9m0-418.9v9"/><text transform="translate(173.9 467.9)" stroke="none" fill="#000" font-family="Arial" font-size="12" text-anchor="middle"><tspan>20</tspan></text></g><g fill="none" color="#000" stroke="currentColor"><path stroke="#000" d="M229.7 446v-9m0-418.9v9"/><text transform="translate(229.7 467.9)" stroke="none" fill="#000" font-family="Arial" font-size="12" text-anchor="middle"><tspan>30</tspan></text></g><g fill="none" color="#000" stroke="currentColor"><path stroke="#000" d="M285.6 446v-9m0-418.9v9"/><text transform="translate(285.6 467.9)" stroke="none" fill="#000" font-family="Arial" font-size="12" text-anchor="middle"><tspan>40</tspan></text></g><g fill="none" color="#000" stroke="currentColor"><path stroke="#000" d="M341.4 446v-9m0-418.9v9"/><text transform="translate(341.4 467.9)" stroke="none" fill="#000" font-family="Arial" font-size="12" text-anchor="middle"><tspan>50</tspan></text></g><g fill="none" color="#000" stroke="currentColor"><path stroke="#000" d="M397.2 446v-9m0-418.9v9"/><text transform="translate(397.2 467.9)" stroke="none" fill="#000" font-family="Arial" font-size="12" text-anchor="middle"><tspan>60</tspan></text></g><g fill="none" color="#000" stroke="currentColor"><path stroke="#000" d="M453.1 446v-9m0-418.9v9"/><text transform="translate(453.1 467.9)" stroke="none" fill="#000" font-family="Arial" font-size="12" text-anchor="middle"><tspan>70</tspan></text></g><g fill="none" color="#000" stroke="currentColor"><path stroke="#000" d="M508.9 446v-9m0-418.9v9"/><text transform="translate(508.9 467.9)" stroke="none" fill="#000" font-family="Arial" font-size="12" text-anchor="middle"><tspan>80</tspan></text></g><g fill="none" color="#000" stroke="currentColor"><path stroke="#000" d="M564.7 446v-9m0-418.9v9"/><text transform="translate(564.7 467.9)" stroke="none" fill="#000" font-family="Arial" font-size="12" text-anchor="middle"><tspan>90</tspan></text></g><path stroke="#000" d="M62.2 18.1V446H615V18.1H62.2z" fill="none" color="#000"/><text transform="translate(279.8 485.9)" stroke="none" fill="#000" font-family="Arial" font-size="12" text-anchor="end" color="#000"><tspan>pages</tspan></text><path stroke="#9400D3" d="M288.1 482h42.2M62.2 32.2l5.6 167 5.6 9.2 5.6-27.8 5.5 31.2 5.6-.8 5.6-.9 5.6-.8 5.6-4.2 5.6 9.2 5.5 3.4 5.6-164.4 5.6 154.3 5.6 6.7 5.6-9.2L146 173l5.5 20.3 5.6 16.8 5.6 7.6 5.6-15.2 5.6 7.6 5.6-4.2L185 26.3l5.6 137.5 5.6 42.1 5.6 9.3 5.6-15.2 5.6 5.9 5.5-.8 5.6 4.2 5.6 3.4h5.6l5.6-5.1 5.6 4.2 5.6-79.2 5.5 77.5 5.6 1.7 5.6 3.4 5.6-1.7 5.6 4.2 5.6-5.9 5.5-5 5.6 8.4 5.6-50.6 5.6 48.1 5.6-65 5.6 57.4 5.5 13.5 5.6-7.6 5.6 8.4 5.6-154.3 5.6 122.3 5.6 13.5 5.5 13.4 5.6-5 5.6 4.2 5.6-186.3 5.6 187.1 5.6-5.9 5.5 7.6 5.6-64 5.6 59 5.6 4.2 5.6-5.9 5.6 7.6 5.5-7.6 5.6 5.9 5.6.8 5.6-94.4 5.6 91.1 5.6 2.5 5.6-17.7h5.5l5.6 21.9 5.6-9.3 5.6-5.9 5.6 11 5.6-.9 5.5-8.4 5.6-94.4 5.6 102.8 5.6-4.2 5.6 3.4 5.6 3.4h5.5l5.6 220.9 5.6-226.8 5.6 1.7 5.6 2.5 5.6-179.6 5.5 170.3 5.6 7.6 5.6.8 5.6-3.3 5.6 3.3 5.6-54.8 5.5 48.1 5.6 1.7h5.6l5.6-4.2" fill="none" color="#000"/><text transform="translate(438.2 485.9)" stroke="none" fill="#000" font-family="Arial" font-size="12" text-anchor="end" color="#000"><tspan>pages+cached</tspan></text><path stroke="#009E73" d="M446.5 482h42.2M62.2 207.6l5.6 26.1 5.6 48.9 5.6-49.7h5.5l5.6 47.2 5.6-32.9 5.6 3.4 5.6-6.7 5.6-10.2 5.5 10.2 5.6 34.5 5.6-43.8 5.6 1.7 5.6-4.3 5.6.9 5.5 46.4 5.6-47.3h5.6l5.6 11.9 5.6-9.3 5.6-2.6 5.5 49 5.6-36.3 5.6 8.4 5.6-16 5.6 7.6 5.6 37.9 5.5-49.7 5.6 11.8 5.6-11 5.6 9.3 5.6 38 5.6-.9 5.6 1.7 5.5-43 5.6 5.1 5.6 35.4 5.6-34.6L280 281l5.6-46.4 5.5 1.7 5.6-2.6 5.6 1.7 5.6 8.5 5.6-7.6 5.6 5.9 5.5 3.3 5.6.9 5.6-11.8 5.6 47.2 5.6-31.2 5.6-2.5 5.5 32 5.6-46.4 5.6 9.3 5.6 37.1 5.6-35.4 5.6 37.9 5.5-48 5.6 48 5.6-2.5 5.6-33.7L414 281l5.6-47.3 5.5.9 5.6 8.4 5.6-6.7 5.6 10.9 5.6-6.7 5.6 41.3 5.6-36.3 5.5 35.5 5.6-46.4 5.6 2.5 5.6 7.6 5.6-9.3 5.6 8.5 5.5-.9 5.6-6.7 5.6 43.8 5.6-47.2 5.6 3.4 5.6 45.5 5.5-37.9 5.6 1.6 5.6 1.7 5.6-.8 5.6 36.2 5.6-.8 5.5-45.5 5.6 10.1h5.6l5.6.8 5.6-11.8 5.6 47.2 5.5 1.7 5.6-40.4 5.6-9.3 5.6 45.5" fill="none" color="#000"/><g fill="none" color="#000" stroke="currentColor"><path stroke="#000" d="M62.2 18.1V446H615V18.1H62.2z"/></g></svg>

<?xml version="1.0" encoding="utf-8"  standalone="no"?>
<svg 
 width="640" height="500"
 viewBox="0 0 640 500"
 xmlns="http://www.w3.org/2000/svg"
 xmlns:xlink="http://www.w3.org/1999/xlink"
>

<title>Gnuplot</title>
<desc>Produced by GNUPLOT 5.4 patchlevel 0 </desc>

<g id="gnuplot_canvas">

<rect x="0" y="0" width="640" height="500" fill="#ffffff"/>
<defs>

	<circle id='gpDot' r='0.5' stroke-width='0.5' stroke='currentColor'/>
	<path id='gpPt0' stroke-width='0.222' stroke='currentColor' d='M-1,0 h2 M0,-1 v2'/>
	<path id='gpPt1' stroke-width='0.222' stroke='currentColor' d='M-1,-1 L1,1 M1,-1 L-1,1'/>
	<path id='gpPt2' stroke-width='0.222' stroke='currentColor' d='M-1,0 L1,0 M0,-1 L0,1 M-1,-1 L1,1 M-1,1 L1,-1'/>
	<rect id='gpPt3' stroke-width='0.222' stroke='currentColor' x='-1' y='-1' width='2' height='2'/>
	<rect id='gpPt4' stroke-width='0.222' stroke='currentColor' fill='currentColor' x='-1' y='-1' width='2' height='2'/>
	<circle id='gpPt5' stroke-width='0.222' stroke='currentColor' cx='0' cy='0' r='1'/>
	<use xlink:href='#gpPt5' id='gpPt6' fill='currentColor' stroke='none'/>
	<path id='gpPt7' stroke-width='0.222' stroke='currentColor' d='M0,-1.33 L-1.33,0.67 L1.33,0.67 z'/>
	<use xlink:href='#gpPt7' id='gpPt8' fill='currentColor' stroke='none'/>
	<use xlink:href='#gpPt7' id='gpPt9' stroke='currentColor' transform='rotate(180)'/>
	<use xlink:href='#gpPt9' id='gpPt10' fill='currentColor' stroke='none'/>
	<use xlink:href='#gpPt3' id='gpPt11' stroke='currentColor' transform='rotate(45)'/>
	<use xlink:href='#gpPt11' id='gpPt12' fill='currentColor' stroke='none'/>
	<path id='gpPt13' stroke-width='0.222' stroke='currentColor' d='M0,1.330 L1.265,0.411 L0.782,-1.067 L-0.782,-1.076 L-1.265,0.411 z'/>
	<use xlink:href='#gpPt13' id='gpPt14' fill='currentColor' stroke='none'/>
	<filter id='textbox' filterUnits='objectBoundingBox' x='0' y='0' height='1' width='1'>
	  <feFlood flood-color='#FFFFFF' flood-opacity='1' result='bgnd'/>
	  <feComposite in='SourceGraphic' in2='bgnd' operator='atop'/>
	</filter>
	<filter id='greybox' filterUnits='objectBoundingBox' x='0' y='0' height='1' width='1'>
	  <feFlood flood-color='lightgrey' flood-opacity='1' result='grey'/>
	  <feComposite in='SourceGraphic' in2='grey' operator='atop'/>
	</filter>
</defs>
<g fill="none" color="#FFFFFF" stroke="black" stroke-width="1.00" stroke-linecap="butt" stroke-linejoin="miter">
</g>
<g fill="none" color="black" stroke="currentColor" stroke-width="1.00" stroke-linecap="butt" stroke-linejoin="miter">
	<path stroke='black'  d='M62.2,380.4 L71.2,380.4 M615.0,380.4 L606.0,380.4  '/>	<g transform="translate(53.9,384.3)" stroke="none" fill="black" font-family="Arial" font-size="12.00"  text-anchor="end">
		<text><tspan font-family="Arial" > 800</tspan></text>
	</g>
</g>
<g fill="none" color="black" stroke="currentColor" stroke-width="1.00" stroke-linecap="butt" stroke-linejoin="miter">
	<path stroke='black'  d='M62.2,296.1 L71.2,296.1 M615.0,296.1 L606.0,296.1  '/>	<g transform="translate(53.9,300.0)" stroke="none" fill="black" font-family="Arial" font-size="12.00"  text-anchor="end">
		<text><tspan font-family="Arial" > 900</tspan></text>
	</g>
</g>
<g fill="none" color="black" stroke="currentColor" stroke-width="1.00" stroke-linecap="butt" stroke-linejoin="miter">
	<path stroke='black'  d='M62.2,211.8 L71.2,211.8 M615.0,211.8 L606.0,211.8  '/>	<g transform="translate(53.9,215.7)" stroke="none" fill="black" font-family="Arial" font-size="12.00"  text-anchor="end">
		<text><tspan font-family="Arial" > 1000</tspan></text>
	</g>
</g>
<g fill="none" color="black" stroke="currentColor" stroke-width="1.00" stroke-linecap="butt" stroke-linejoin="miter">
	<path stroke='black'  d='M62.2,127.5 L71.2,127.5 M615.0,127.5 L606.0,127.5  '/>	<g transform="translate(53.9,131.4)" stroke="none" fill="black" font-family="Arial" font-size="12.00"  text-anchor="end">
		<text><tspan font-family="Arial" > 1100</tspan></text>
	</g>
</g>
<g fill="none" color="black" stroke="currentColor" stroke-width="1.00" stroke-linecap="butt" stroke-linejoin="miter">
	<path stroke='black'  d='M62.2,43.2 L71.2,43.2 M615.0,43.2 L606.0,43.2  '/>	<g transform="translate(53.9,47.1)" stroke="none" fill="black" font-family="Arial" font-size="12.00"  text-anchor="end">
		<text><tspan font-family="Arial" > 1200</tspan></text>
	</g>
</g>
<g fill="none" color="black" stroke="currentColor" stroke-width="1.00" stroke-linecap="butt" stroke-linejoin="miter">
	<path stroke='black'  d='M62.2,446.0 L62.2,437.0 M62.2,18.1 L62.2,27.1  '/>	<g transform="translate(62.2,467.9)" stroke="none" fill="black" font-family="Arial" font-size="12.00"  text-anchor="middle">
		<text><tspan font-family="Arial" > 0</tspan></text>
	</g>
</g>
<g fill="none" color="black" stroke="currentColor" stroke-width="1.00" stroke-linecap="butt" stroke-linejoin="miter">
	<path stroke='black'  d='M118.0,446.0 L118.0,437.0 M118.0,18.1 L118.0,27.1  '/>	<g transform="translate(118.0,467.9)" stroke="none" fill="black" font-family="Arial" font-size="12.00"  text-anchor="middle">
		<text><tspan font-family="Arial" > 10</tspan></text>
	</g>
</g>
<g fill="none" color="black" stroke="currentColor" stroke-width="1.00" stroke-linecap="butt" stroke-linejoin="miter">
	<path stroke='black'  d='M173.9,446.0 L173.9,437.0 M173.9,18.1 L173.9,27.1  '/>	<g transform="translate(173.9,467.9)" stroke="none" fill="black" font-family="Arial" font-size="12.00"  text-anchor="middle">
		<text><tspan font-family="Arial" > 20</tspan></text>
	</g>
</g>
<g fill="none" color="black" stroke="currentColor" stroke-width="1.00" stroke-linecap="butt" stroke-linejoin="miter">
	<path stroke='black'  d='M229.7,446.0 L229.7,437.0 M229.7,18.1 L229.7,27.1  '/>	<g transform="translate(229.7,467.9)" stroke="none" fill="black" font-family="Arial" font-size="12.00"  text-anchor="middle">
		<text><tspan font-family="Arial" > 30</tspan></text>
	</g>
</g>
<g fill="none" color="black" stroke="currentColor" stroke-width="1.00" stroke-linecap="butt" stroke-linejoin="miter">
	<path stroke='black'  d='M285.6,446.0 L285.6,437.0 M285.6,18.1 L285.6,27.1  '/>	<g transform="translate(285.6,467.9)" stroke="none" fill="black" font-family="Arial" font-size="12.00"  text-anchor="middle">
		<text><tspan font-family="Arial" > 40</tspan></text>
	</g>
</g>
<g fill="none" color="black" stroke="currentColor" stroke-width="1.00" stroke-linecap="butt" stroke-linejoin="miter">
	<path stroke='black'  d='M341.4,446.0 L341.4,437.0 M341.4,18.1 L341.4,27.1  '/>	<g transform="translate(341.4,467.9)" stroke="none" fill="black" font-family="Arial" font-size="12.00"  text-anchor="middle">
		<text><tspan font-family="Arial" > 50</tspan></text>
	</g>
</g>
<g fill="none" color="black" stroke="currentColor" stroke-width="1.00" stroke-linecap="butt" stroke-linejoin="miter">
	<path stroke='black'  d='M397.2,446.0 L397.2,437.0 M397.2,18.1 L397.2,27.1  '/>	<g transform="translate(397.2,467.9)" stroke="none" fill="black" font-family="Arial" font-size="12.00"  text-anchor="middle">
		<text><tspan font-family="Arial" > 60</tspan></text>
	</g>
</g>
<g fill="none" color="black" stroke="currentColor" stroke-width="1.00" stroke-linecap="butt" stroke-linejoin="miter">
	<path stroke='black'  d='M453.1,446.0 L453.1,437.0 M453.1,18.1 L453.1,27.1  '/>	<g transform="translate(453.1,467.9)" stroke="none" fill="black" font-family="Arial" font-size="12.00"  text-anchor="middle">
		<text><tspan font-family="Arial" > 70</tspan></text>
	</g>
</g>
<g fill="none" color="black" stroke="currentColor" stroke-width="1.00" stroke-linecap="butt" stroke-linejoin="miter">
	<path stroke='black'  d='M508.9,446.0 L508.9,437.0 M508.9,18.1 L508.9,27.1  '/>	<g transform="translate(508.9,467.9)" stroke="none" fill="black" font-family="Arial" font-size="12.00"  text-anchor="middle">
		<text><tspan font-family="Arial" > 80</tspan></text>
	</g>
</g>
<g fill="none" color="black" stroke="currentColor" stroke-width="1.00" stroke-linecap="butt" stroke-linejoin="miter">
	<path stroke='black'  d='M564.7,446.0 L564.7,437.0 M564.7,18.1 L564.7,27.1  '/>	<g transform="translate(564.7,467.9)" stroke="none" fill="black" font-family="Arial" font-size="12.00"  text-anchor="middle">
		<text><tspan font-family="Arial" > 90</tspan></text>
	</g>
</g>
<g fill="none" color="black" stroke="currentColor" stroke-width="1.00" stroke-linecap="butt" stroke-linejoin="miter">
</g>
<g fill="none" color="black" stroke="currentColor" stroke-width="1.00" stroke-linecap="butt" stroke-linejoin="miter">
	<path stroke='black'  d='M62.2,18.1 L62.2,446.0 L615.0,446.0 L615.0,18.1 L62.2,18.1 Z  '/></g>
<g fill="none" color="black" stroke="currentColor" stroke-width="1.00" stroke-linecap="butt" stroke-linejoin="miter">
</g>
	<g id="gnuplot_plot_1" ><title>pages</title>
<g fill="none" color="black" stroke="currentColor" stroke-width="1.00" stroke-linecap="butt" stroke-linejoin="miter">
	<g transform="translate(279.8,485.9)" stroke="none" fill="black" font-family="Arial" font-size="12.00"  text-anchor="end">
		<text><tspan font-family="Arial" >pages</tspan></text>
	</g>
</g>
<g fill="none" color="black" stroke="currentColor" stroke-width="1.00" stroke-linecap="butt" stroke-linejoin="miter">
	<path stroke='rgb(148,   0, 211)'  d='M288.1,482.0 L330.3,482.0 M62.2,32.2 L67.8,199.2 L73.4,208.4 L79.0,180.6 L84.5,211.8 L90.1,211.0
		L95.7,210.1 L101.3,209.3 L106.9,205.1 L112.5,214.3 L118.0,217.7 L123.6,53.3 L129.2,207.6 L134.8,214.3
		L140.4,205.1 L146.0,173.0 L151.5,193.3 L157.1,210.1 L162.7,217.7 L168.3,202.5 L173.9,210.1 L179.5,205.9
		L185.0,26.3 L190.6,163.8 L196.2,205.9 L201.8,215.2 L207.4,200.0 L213.0,205.9 L218.5,205.1 L224.1,209.3
		L229.7,212.7 L235.3,212.7 L240.9,207.6 L246.5,211.8 L252.1,132.6 L257.6,210.1 L263.2,211.8 L268.8,215.2
		L274.4,213.5 L280.0,217.7 L285.6,211.8 L291.1,206.8 L296.7,215.2 L302.3,164.6 L307.9,212.7 L313.5,147.7
		L319.1,205.1 L324.6,218.6 L330.2,211.0 L335.8,219.4 L341.4,65.1 L347.0,187.4 L352.6,200.9 L358.1,214.3
		L363.7,209.3 L369.3,213.5 L374.9,27.2 L380.5,214.3 L386.1,208.4 L391.6,216.0 L397.2,152.0 L402.8,211.0
		L408.4,215.2 L414.0,209.3 L419.6,216.9 L425.1,209.3 L430.7,215.2 L436.3,216.0 L441.9,121.6 L447.5,212.7
		L453.1,215.2 L458.7,197.5 L464.2,197.5 L469.8,219.4 L475.4,210.1 L481.0,204.2 L486.6,215.2 L492.2,214.3
		L497.7,205.9 L503.3,111.5 L508.9,214.3 L514.5,210.1 L520.1,213.5 L525.7,216.9 L531.2,216.9 L536.8,437.8
		L542.4,211.0 L548.0,212.7 L553.6,215.2 L559.2,35.6 L564.7,205.9 L570.3,213.5 L575.9,214.3 L581.5,211.0
		L587.1,214.3 L592.7,159.5 L598.2,207.6 L603.8,209.3 L609.4,209.3 L615.0,205.1  '/></g>
	</g>
	<g id="gnuplot_plot_2" ><title>pages+cached</title>
<g fill="none" color="black" stroke="currentColor" stroke-width="1.00" stroke-linecap="butt" stroke-linejoin="miter">
	<g transform="translate(438.2,485.9)" stroke="none" fill="black" font-family="Arial" font-size="12.00"  text-anchor="end">
		<text><tspan font-family="Arial" >pages+cached</tspan></text>
	</g>
</g>
<g fill="none" color="black" stroke="currentColor" stroke-width="1.00" stroke-linecap="butt" stroke-linejoin="miter">
	<path stroke='rgb(  0, 158, 115)'  d='M446.5,482.0 L488.7,482.0 M62.2,207.6 L67.8,233.7 L73.4,282.6 L79.0,232.9 L84.5,232.9 L90.1,280.1
		L95.7,247.2 L101.3,250.6 L106.9,243.9 L112.5,233.7 L118.0,243.9 L123.6,278.4 L129.2,234.6 L134.8,236.3
		L140.4,232.0 L146.0,232.9 L151.5,279.3 L157.1,232.0 L162.7,232.0 L168.3,243.9 L173.9,234.6 L179.5,232.0
		L185.0,281.0 L190.6,244.7 L196.2,253.1 L201.8,237.1 L207.4,244.7 L213.0,282.6 L218.5,232.9 L224.1,244.7
		L229.7,233.7 L235.3,243.0 L240.9,281.0 L246.5,280.1 L252.1,281.8 L257.6,238.8 L263.2,243.9 L268.8,279.3
		L274.4,244.7 L280.0,281.0 L285.6,234.6 L291.1,236.3 L296.7,233.7 L302.3,235.4 L307.9,243.9 L313.5,236.3
		L319.1,242.2 L324.6,245.5 L330.2,246.4 L335.8,234.6 L341.4,281.8 L347.0,250.6 L352.6,248.1 L358.1,280.1
		L363.7,233.7 L369.3,243.0 L374.9,280.1 L380.5,244.7 L386.1,282.6 L391.6,234.6 L397.2,282.6 L402.8,280.1
		L408.4,246.4 L414.0,281.0 L419.6,233.7 L425.1,234.6 L430.7,243.0 L436.3,236.3 L441.9,247.2 L447.5,240.5
		L453.1,281.8 L458.7,245.5 L464.2,281.0 L469.8,234.6 L475.4,237.1 L481.0,244.7 L486.6,235.4 L492.2,243.9
		L497.7,243.0 L503.3,236.3 L508.9,280.1 L514.5,232.9 L520.1,236.3 L525.7,281.8 L531.2,243.9 L536.8,245.5
		L542.4,247.2 L548.0,246.4 L553.6,282.6 L559.2,281.8 L564.7,236.3 L570.3,246.4 L575.9,246.4 L581.5,247.2
		L587.1,235.4 L592.7,282.6 L598.2,284.3 L603.8,243.9 L609.4,234.6 L615.0,280.1  '/></g>
	</g>
<g fill="none" color="#FFFFFF" stroke="rgb(  0, 158, 115)" stroke-width="2.00" stroke-linecap="butt" stroke-linejoin="miter">
</g>
<g fill="none" color="black" stroke="currentColor" stroke-width="2.00" stroke-linecap="butt" stroke-linejoin="miter">
</g>
<g fill="none" color="black" stroke="black" stroke-width="1.00" stroke-linecap="butt" stroke-linejoin="miter">
</g>
<g fill="none" color="black" stroke="currentColor" stroke-width="1.00" stroke-linecap="butt" stroke-linejoin="miter">
	<path stroke='black'  d='M62.2,18.1 L62.2,446.0 L615.0,446.0 L615.0,18.1 L62.2,18.1 Z  '/></g>
<g fill="none" color="black" stroke="currentColor" stroke-width="1.00" stroke-linecap="butt" stroke-linejoin="miter">
</g>
</g>
</svg>
